packages/crayons-icon/icons/add-note.svg

<?xml version="1.0" encoding="UTF-8"?>
<svg width="14px" height="16px" viewBox="0 0 14 16" version="1.1" xmlns="http://www.w3.org/2000/svg" xmlns:xlink="http://www.w3.org/1999/xlink">
    <!-- Generator: Sketch 52.6 (67491) - http://www.bohemiancoding.com/sketch -->
    <title>icon/add-note</title>
    <desc>Created with Sketch.</desc>
    <g id="Icons-✅" stroke="none" stroke-width="1" fill="none" fill-rule="evenodd">
        <g id="Icons" transform="translate(-327.000000, -2916.000000)" fill="currentColor">
            <g id="icon/add-note" transform="translate(327.000000, 2916.000000)">
                <g id="add-note">
                    <path d="M13.49,4.6 C13.49,4.62 13.5,4.65 13.5,4.65 L13.5,13.3 C13.5,14.7911688 12.2911688,16 10.8,16 L3.2,16 C1.70883118,16 0.5,14.7911688 0.5,13.3 L0.5,2.7 C0.5,1.20883118 1.70883118,-3.44438606e-16 3.2,0 L8.9,0 C8.96700342,0.0118070481 9.03135185,0.0355143663 9.09,0.07 L9.16,0.07 C9.2347926,0.103823491 9.30261939,0.15130224 9.36,0.21 L13.36,4.15 C13.4181604,4.20965771 13.4625353,4.28134024 13.49,4.36 L13.49,4.42 C13.4995335,4.4796213 13.4995335,4.5403787 13.49,4.6 Z M9.56,2.39 L9.56,4 L11.11,4 L9.56,2.39 Z M10.8,14.6 C11.4988887,14.6005171 12.0731198,14.0483718 12.1,13.35 L12.1,5.35 L8.9,5.35 C8.51340068,5.35 8.2,5.03659932 8.2,4.65 L8.2,1.4 L3.2,1.4 C2.48202983,1.4 1.9,1.98202983 1.9,2.7 L1.9,13.3 C1.9,13.6447814 2.03696389,13.9754415 2.28076118,14.2192388 C2.52455848,14.4630361 2.85521856,14.6 3.2,14.6 L10.8,14.6 Z M10.05,7.34 L10.1,7.34 C10.4865993,7.34 10.8,7.65340068 10.8,8.04 C10.8,8.42659932 10.4865993,8.74 10.1,8.74 L4,8.74 C3.61340068,8.74 3.3,8.42659932 3.3,8.04 C3.3,7.65340068 3.61340068,7.34 4,7.34 L10.05,7.34 Z M10.05,11 L10.1,11 C10.3500859,11 10.5811748,11.1334192 10.7062178,11.35 C10.8312608,11.5665807 10.8312608,11.8334193 10.7062178,12.05 C10.5811748,12.2665808 10.3500859,12.4 10.1,12.4 L4,12.4 C3.61340068,12.4 3.3,12.0865993 3.3,11.7 C3.3,11.3134007 3.61340068,11 4,11 L10.05,11 Z M4,5.09 C3.61340068,5.09 3.3,4.77659932 3.3,4.39 C3.3,4.00340068 3.61340068,3.69 4,3.69 L6.11,3.69 C6.49659932,3.69 6.81,4.00340068 6.81,4.39 C6.81,4.77659932 6.49659932,5.09 6.11,5.09 L4,5.09 Z" id="Combined-Shape"></path>
                </g>
            </g>
        </g>
    </g>
</svg>

<svg viewBox="0 0 14 16"><path d="M13.49 4.6c0 .02.01.05.01.05v8.65a2.7 2.7 0 0 1-2.7 2.7H3.2a2.7 2.7 0 0 1-2.7-2.7V2.7A2.7 2.7 0 0 1 3.2 0h5.7a.57.57 0 0 1 .19.07h.07a.66.66 0 0 1 .2.14l4 3.94a.57.57 0 0 1 .13.21v.06c.01.06.01.12 0 .18zM9.56 2.39V4h1.55L9.56 2.39zM10.8 14.6a1.3 1.3 0 0 0 1.3-1.25v-8H8.9a.7.7 0 0 1-.7-.7V1.4h-5a1.3 1.3 0 0 0-1.3 1.3v10.6a1.3 1.3 0 0 0 1.3 1.3h7.6zm-.75-7.26h.05a.7.7 0 0 1 0 1.4H4a.7.7 0 0 1 0-1.4h6.05zm0 3.66h.05a.7.7 0 1 1 0 1.4H4A.7.7 0 0 1 4 11h6.05zM4 5.09a.7.7 0 0 1 0-1.4h2.11a.7.7 0 0 1 0 1.4H4z" fill="currentColor" fill-rule="evenodd"/></svg>
